;FLAVOR:Marlin
;TIME:5923
;Filament used: 2.28433m
;Layer height: 0.2
;MINX:106.209
;MINY:103.61
;MINZ:0.2
;MAXX:133.791
;MAXY:131.191
;MAXZ:145.2
;Generated with Cura_SteamEngine 5.2.2
M140 S50
M105
M190 S50
M104 S200
M105
M109 S200
M82 ;absolute extrusion mode
; Ender 3 Custom Start G-code
G92 E0 ; Reset Extruder
G28 ; Home all axes
G29 ; Auto-Bedleveling
G1 Z2.0 F3000 ; Move Z Axis up little to prevent scratching of Heat Bed
G1 X0.1 Y20 Z0.3 F5000.0 ; Move to start position
G1 X0.1 Y200.0 Z0.3 F1500.0 E15 ; Draw the first line
G1 X0.4 Y200.0 Z0.3 F5000.0 ; Move to side a little
G1 X0.4 Y20 Z0.3 F1500.0 E30 ; Draw the second line
G92 E0 ; Reset Extruder
G1 Z2.0 F3000 ; Move Z Axis up little to prevent scratching of Heat Bed
G1 X5 Y20 Z0.3 F5000.0 ; Move over to prevent blob squish
G92 E0
G92 E0
G1 F2700 E-5
;LAYER_COUNT:726
;LAYER:0
M107
G0 F6000 X109.986 Y107.912 Z0.2
;TYPE:SKIRT
G1 F2700 E0
G1 F1200 X110.516 Y107.381 E0.02495
G1 X110.951 Y106.986 E0.0445
G1 X111.549 Y106.496 E0.07021
G1 X112.021 Y106.146 E0.08975
G1 X112.658 Y105.72 E0.11524
G1 X113.162 Y105.418 E0.13478
G1 X113.836 Y105.058 E0.1602
G1 X114.373 Y104.804 E0.17996
G1 X115.103 Y104.503 E0.20622
G1 X115.659 Y104.306 E0.22584
G1 X116.372 Y104.091 E0.25061
G1 X116.94 Y103.949 E0.27008
G1 X117.681 Y103.801 E0.29521
G1 X118.264 Y103.714 E0.31482
G1 X119.029 Y103.639 E0.34038
G1 X119.615 Y103.61 E0.3599
G1 X120.394 Y103.61 E0.38581
G1 X120.988 Y103.64 E0.40559
G1 X121.75 Y103.716 E0.43106
G1 X122.331 Y103.803 E0.4506
G1 X123.087 Y103.955 E0.47625
G1 X123.657 Y104.099 E0.4958
G1 X124.381 Y104.32 E0.52098
G1 X124.941 Y104.521 E0.54077
G1 X125.649 Y104.815 E0.56627
G1 X126.176 Y105.065 E0.58567
G1 X126.848 Y105.425 E0.61102
G1 X127.351 Y105.727 E0.63054
G1 X127.982 Y106.149 E0.65578
G1 X128.458 Y106.502 E0.67549
G1 X129.059 Y106.995 E0.70135
G1 X129.488 Y107.385 E0.72063
G1 X130.015 Y107.913 E0.74544
G1 X130.411 Y108.349 E0.76503
G1 X130.894 Y108.936 E0.79032
G1 X131.246 Y109.409 E0.80993
G1 X131.69 Y110.074 E0.83652
G1 X131.992 Y110.581 E0.85615
G1 X132.34 Y111.234 E0.88076
G1 X132.591 Y111.764 E0.90027
G1 X132.885 Y112.471 E0.92573
G1 X133.085 Y113.029 E0.94545
G1 X133.309 Y113.769 E0.97116
G1 X133.451 Y114.337 E0.99064
G1 X133.598 Y115.076 E1.0157
G1 X133.685 Y115.658 E1.03527
G1 X133.762 Y116.433 E1.06117
G1 X133.791 Y117.031 E1.08109
G1 X133.79 Y117.807 E1.1069
G1 X133.76 Y118.394 E1.12644
G1 X133.683 Y119.156 E1.15192
G1 X133.595 Y119.741 E1.17159
G1 X133.444 Y120.495 E1.19717
G1 X133.3 Y121.064 E1.21669
G1 X133.087 Y121.765 E1.24106
G1 X132.892 Y122.313 E1.26041
G1 X132.589 Y123.043 E1.28669
G1 X132.336 Y123.576 E1.30632
G1 X131.985 Y124.232 E1.33106
G1 X131.685 Y124.734 E1.35051
G1 X131.247 Y125.39 E1.37675
G1 X130.889 Y125.871 E1.39669
G1 X130.404 Y126.46 E1.42207
G1 X130.015 Y126.888 E1.44131
G1 X129.48 Y127.423 E1.46647
G1 X129.044 Y127.818 E1.48604
G1 X128.449 Y128.305 E1.51161
G1 X127.971 Y128.659 E1.53139
G1 X127.336 Y129.083 E1.55679
G1 X126.83 Y129.386 E1.57641
G1 X126.172 Y129.739 E1.60124
G1 X125.644 Y129.99 E1.62069
G1 X124.904 Y130.296 E1.64732
G1 X124.349 Y130.493 E1.66691
G1 X123.641 Y130.707 E1.69151
G1 X123.072 Y130.85 E1.71102
G1 X122.307 Y131.002 E1.73696
G1 X121.723 Y131.088 E1.7566
G1 X120.965 Y131.162 E1.78193
G1 X120.368 Y131.191 E1.80181
G1 X119.598 Y131.19 E1.82742
G1 X119.021 Y131.161 E1.84663
G1 X118.279 Y131.088 E1.87143
G1 X117.694 Y131.002 E1.8911
G1 X116.924 Y130.849 E1.91721
G1 X116.352 Y130.705 E1.93683
G1 X115.628 Y130.485 E1.962
G1 X115.072 Y130.286 E1.98164
G1 X114.367 Y129.994 E2.00702
G1 X113.836 Y129.743 E2.02655
G1 X113.158 Y129.381 E2.05211
G1 X112.656 Y129.08 E2.07158
G1 X112.014 Y128.65 E2.09728
G1 X111.535 Y128.294 E2.11713
G1 X110.946 Y127.81 E2.14249
G1 X110.514 Y127.418 E2.16189
G1 X109.975 Y126.879 E2.18724
G1 X109.58 Y126.443 E2.20681
G1 X109.097 Y125.854 E2.23215
G1 X108.746 Y125.381 E2.25174
G1 X108.319 Y124.742 E2.2773
G1 X108.017 Y124.238 E2.29684
G1 X107.659 Y123.568 E2.32211
G1 X107.407 Y123.036 E2.34169
G1 X107.105 Y122.304 E2.36802
G1 X106.905 Y121.74 E2.38793
G1 X106.691 Y121.034 E2.41246
G1 X106.55 Y120.473 E2.4317
G1 X106.398 Y119.706 E2.45771
G1 X106.312 Y119.121 E2.47737
G1 X106.238 Y118.366 E2.50261
G1 X106.209 Y117.77 E2.52245
G1 X106.21 Y116.993 E2.5483
G1 X106.24 Y116.406 E2.56785
G1 X106.315 Y115.655 E2.59295
G1 X106.402 Y115.071 E2.61259
G1 X106.551 Y114.325 E2.63789
G1 X106.691 Y113.766 E2.65705
G1 X106.915 Y113.027 E2.68274
G1 X107.117 Y112.464 E2.70263
G1 X107.413 Y111.753 E2.72825
G1 X107.666 Y111.22 E2.74787
G1 X108.027 Y110.546 E2.7733
G1 X108.33 Y110.042 E2.79286
G1 X108.757 Y109.405 E2.81837
G1 X109.106 Y108.936 E2.83781
G1 X109.59 Y108.348 E2.86314
G1 X109.986 Y107.912 E2.88273
G0 F6000 X110.282 Y108.181
G1 F1200 X110.785 Y107.678 E2.90639
G1 X111.22 Y107.283 E2.92593
G1 X111.787 Y106.817 E2.95034
G1 X112.259 Y106.467 E2.96989
G1 X112.863 Y106.063 E2.99406
G1 X113.367 Y105.761 E3.0136
G1 X114.007 Y105.42 E3.03772
G1 X114.544 Y105.166 E3.05748
G1 X115.237 Y104.88 E3.08241
G1 X115.793 Y104.683 E3.10203
G1 X116.469 Y104.479 E3.12552
G1 X117.037 Y104.337 E3.14499
G1 X117.74 Y104.197 E3.16883
G1 X118.323 Y104.11 E3.18844
G1 X119.049 Y104.038 E3.2127
G1 X119.635 Y104.009 E3.23222
G1 X120.374 Y104.009 E3.25679
G1 X120.968 Y104.039 E3.27658
G1 X121.691 Y104.112 E3.30075
G1 X122.272 Y104.199 E3.32029
G1 X122.989 Y104.342 E3.3446
G1 X123.559 Y104.486 E3.36416
G1 X124.246 Y104.696 E3.38805
G1 X124.806 Y104.897 E3.40784
G1 X125.478 Y105.176 E3.43204
G1 X126.005 Y105.426 E3.45144
G1 X126.642 Y105.768 E3.47549
G1 X127.145 Y106.07 E3.495
G1 X127.744 Y106.47 E3.51896
G1 X128.22 Y106.823 E3.53867
G1 X128.79 Y107.291 E3.5632
G1 X129.219 Y107.681 E3.58248
G1 X129.719 Y108.182 E3.60602
G1 X130.115 Y108.618 E3.62561
G1 X130.574 Y109.175 E3.64962
G1 X130.926 Y109.648 E3.66923
G1 X131.347 Y110.279 E3.69446
G1 X131.649 Y110.786 E3.71409
G1 X131.979 Y111.406 E3.73745
G1 X132.23 Y111.936 E3.75695
G1 X132.508 Y112.606 E3.78108
G1 X132.708 Y113.164 E3.80079
G1 X132.921 Y113.866 E3.82519
G1 X133.063 Y114.434 E3.84467
G1 X133.203 Y115.135 E3.86844
G1 X133.29 Y115.717 E3.88801
G1 X133.362 Y116.453 E3.91261
G1 X133.391 Y117.051 E3.93252
G1 X133.39 Y117.787 E3.957
G1 X133.36 Y118.374 E3.97655
G1 X133.288 Y119.097 E4.00072
G1 X133.2 Y119.682 E4.02039
G1 X133.056 Y120.397 E4.04465
G1 X132.912 Y120.966 E4.06417
G1 X132.71 Y121.631 E4.08729
G1 X132.515 Y122.179 E4.10664
G1 X132.228 Y122.871 E4.13155
G1 X131.975 Y123.404 E4.15118
G1 X131.642 Y124.027 E4.17467
G1 X131.342 Y124.529 E4.19412
G1 X130.926 Y125.151 E4.21901
G1 X130.568 Y125.632 E4.23895
G1 X130.108 Y126.191 E4.26303
G1 X129.719 Y126.619 E4.28227
G1 X129.211 Y127.126 E4.30614
G1 X128.775 Y127.521 E4.32571
G1 X128.211 Y127.984 E4.34998
G1 X127.733 Y128.338 E4.36976
G1 X127.131 Y128.74 E4.39384
G1 X126.625 Y129.043 E4.41345
G1 X126 Y129.377 E4.43702
G1 X125.472 Y129.628 E4.45647
G1 X124.77 Y129.919 E4.48174
G1 X124.215 Y130.116 E4.50133
G1 X123.544 Y130.319 E4.52465
G1 X122.975 Y130.462 E4.54416
G1 X122.249 Y130.606 E4.56878
G1 X121.665 Y130.692 E4.58841
G1 X120.946 Y130.762 E4.61244
G1 X120.349 Y130.791 E4.63232
G1 X119.619 Y130.791 E4.6566
G1 X119.042 Y130.762 E4.67581
G1 X118.337 Y130.692 E4.69938
G1 X117.752 Y130.606 E4.71904
G1 X117.021 Y130.461 E4.74383
G1 X116.449 Y130.317 E4.76345
G1 X115.762 Y130.108 E4.78733
G1 X115.206 Y129.909 E4.80697
G1 X114.538 Y129.632 E4.83103
G1 X114.007 Y129.381 E4.85056
G1 X113.364 Y129.038 E4.8748
G1 X112.862 Y128.737 E4.89427
G1 X112.253 Y128.329 E4.91865
G1 X111.774 Y127.973 E4.9385
G1 X111.215 Y127.514 E4.96256
G1 X110.783 Y127.122 E4.98196
G1 X110.272 Y126.61 E5.00602
G1 X109.877 Y126.174 E5.02558
G1 X109.418 Y125.616 E5.04962
G1 X109.067 Y125.143 E5.06921
G1 X108.662 Y124.537 E5.09345
G1 X108.36 Y124.033 E5.11299
G1 X108.02 Y123.397 E5.13698
G1 X107.768 Y122.865 E5.15656
G1 X107.482 Y122.17 E5.18155
G1 X107.282 Y121.606 E5.20146
G1 X107.079 Y120.937 E5.22471
G1 X106.938 Y120.376 E5.24395
G1 X106.794 Y119.648 E5.26863
G1 X106.708 Y119.063 E5.2883
G1 X106.638 Y118.347 E5.31223
G1 X106.609 Y117.751 E5.33207
G1 X106.61 Y117.013 E5.35662
G1 X106.64 Y116.426 E5.37617
G1 X106.711 Y115.714 E5.39997
G1 X106.798 Y115.13 E5.4196
G1 X106.939 Y114.422 E5.44361
G1 X107.079 Y113.863 E5.46278
G1 X107.292 Y113.162 E5.48715
G1 X107.494 Y112.599 E5.50704
G1 X107.774 Y111.925 E5.53132
G1 X108.027 Y111.392 E5.55094
G1 X108.37 Y110.752 E5.57509
G1 X108.673 Y110.248 E5.59465
G1 X109.078 Y109.643 E5.61887
G1 X109.427 Y109.174 E5.63831
G1 X109.886 Y108.617 E5.66232
G1 X110.282 Y108.181 E5.68191
G0 F6000 X110.578 Y108.45
G1 F1200 X111.054 Y107.974 E5.7043
G1 X111.489 Y107.579 E5.72384
G1 X112.026 Y107.138 E5.74695
G1 X112.498 Y106.788 E5.76649
G1 X113.069 Y106.406 E5.78934
G1 X113.573 Y106.104 E5.80889
G1 X114.178 Y105.781 E5.8317
G1 X114.715 Y105.527 E5.85145
G1 X115.37 Y105.257 E5.87502
G1 X115.926 Y105.06 E5.89464
G1 X116.566 Y104.867 E5.91687
G1 X117.134 Y104.725 E5.93634
G1 X117.799 Y104.593 E5.95889
G1 X118.382 Y104.506 E5.9785
G1 X119.069 Y104.438 E6.00146
G1 X119.655 Y104.409 E6.02097
G1 X120.354 Y104.409 E6.04422
G1 X120.948 Y104.439 E6.064
G1 X121.632 Y104.507 E6.08687
G1 X122.213 Y104.594 E6.10641
G1 X122.891 Y104.73 E6.12941
G1 X123.461 Y104.874 E6.14896
G1 X124.111 Y105.073 E6.17157
G1 X124.671 Y105.274 E6.19136
G1 X125.306 Y105.538 E6.21423
G1 X125.833 Y105.788 E6.23363
G1 X126.436 Y106.111 E6.25638
G1 X126.939 Y106.413 E6.2759
G1 X127.506 Y106.791 E6.29856
G1 X127.982 Y107.144 E6.31827
G1 X128.521 Y107.587 E6.34148
G1 X128.95 Y107.977 E6.36076
G1 X129.423 Y108.451 E6.38303
G1 X129.819 Y108.887 E6.40262
G1 X130.253 Y109.414 E6.42533
G1 X130.605 Y109.887 E6.44494
G1 X131.003 Y110.484 E6.4688
G1 X131.305 Y110.991 E6.48843
G1 X131.617 Y111.577 E6.51051
G1 X131.868 Y112.107 E6.53002
G1 X132.132 Y112.741 E6.55286
G1 X132.332 Y113.299 E6.57258
G1 X132.533 Y113.963 E6.59565
G1 X132.675 Y114.531 E6.61512
G1 X132.807 Y115.194 E6.63761
G1 X132.894 Y115.776 E6.65718
G1 X132.963 Y116.472 E6.68044
G1 X132.992 Y117.07 E6.70036
G1 X132.991 Y117.766 E6.7235
G1 X132.961 Y118.353 E6.74305
G1 X132.892 Y119.037 E6.76592
G1 X132.804 Y119.622 E6.7856
G1 X132.668 Y120.298 E6.80853
G1 X132.524 Y120.867 E6.82805
G1 X132.333 Y121.497 E6.84995
G1 X132.138 Y122.045 E6.86929
G1 X131.867 Y122.7 E6.89287
G1 X131.614 Y123.233 E6.91249
G1 X131.299 Y123.822 E6.93471
G1 X130.999 Y124.324 E6.95416
G1 X130.605 Y124.912 E6.9777
G1 X130.247 Y125.393 E6.99764
G1 X129.812 Y125.922 E7.02042
G1 X129.423 Y126.35 E7.03966
G1 X128.943 Y126.83 E7.06224
G1 X128.507 Y127.225 E7.0818
G1 X127.973 Y127.662 E7.10476
G1 X127.495 Y128.016 E7.12454
G1 X126.925 Y128.397 E7.14734
G1 X126.419 Y128.7 E7.16696
G1 X125.828 Y129.016 E7.18925
G1 X125.3 Y129.267 E7.20869
G1 X124.637 Y129.542 E7.23257
G1 X124.082 Y129.739 E7.25215
G1 X123.446 Y129.931 E7.27425
G1 X122.877 Y130.074 E7.29376
G1 X122.191 Y130.21 E7.31702
G1 X121.607 Y130.296 E7.33666
G1 X120.927 Y130.363 E7.35938
G1 X120.33 Y130.392 E7.37926
G1 X119.639 Y130.391 E7.40225
G1 X119.062 Y130.362 E7.42146
G1 X118.395 Y130.297 E7.44375
G1 X117.81 Y130.211 E7.46342
G1 X117.119 Y130.073 E7.48685
G1 X116.547 Y129.929 E7.50647
G1 X115.897 Y129.732 E7.52906
G1 X115.341 Y129.533 E7.5487
G1 X114.709 Y129.271 E7.57146
G1 X114.178 Y129.02 E7.59099
G1 X113.569 Y128.695 E7.61395
G1 X113.067 Y128.394 E7.63342
G1 X112.491 Y128.008 E7.65648
G1 X112.012 Y127.652 E7.67633
G1 X111.484 Y127.218 E7.69907
G1 X111.052 Y126.826 E7.71847
G1 X110.568 Y126.342 E7.74123
G1 X110.173 Y125.906 E7.7608
G1 X109.74 Y125.377 E7.78354
G1 X109.389 Y124.904 E7.80313
G1 X109.005 Y124.331 E7.82607
G1 X108.703 Y123.827 E7.84561
G1 X108.382 Y123.226 E7.86827
G1 X108.13 Y122.694 E7.88785
G1 X107.859 Y122.037 E7.91149
G1 X107.659 Y121.473 E7.9314
G1 X107.467 Y120.839 E7.95343
G1 X107.326 Y120.278 E7.97267
G1 X107.189 Y119.59 E7.996
G1 X107.103 Y119.005 E8.01567
G1 X107.037 Y118.327 E8.03832
G1 X107.008 Y117.731 E8.05817
G1 X107.009 Y117.034 E8.08135
G1 X107.039 Y116.447 E8.1009
G1 X107.106 Y115.773 E8.12343
G1 X107.193 Y115.189 E8.14307
G1 X107.327 Y114.519 E8.16579
G1 X107.467 Y113.96 E8.18496
G1 X107.668 Y113.297 E8.208
G1 X107.87 Y112.734 E8.2279
G1 X108.135 Y112.096 E8.25087
G1 X108.388 Y111.563 E8.2705
G1 X108.713 Y110.958 E8.29334
G1 X109.016 Y110.454 E8.3129
G1 X109.399 Y109.882 E8.33579
G1 X109.748 Y109.413 E8.35524
G1 X110.182 Y108.886 E8.37794
G1 X110.578 Y108.45 E8.39753
G0 F6000 X110.874 Y108.719
G1 F1200 X111.323 Y108.27 E8.41865
G1 X111.758 Y107.875 E8.4382
G1 X112.264 Y107.46 E8.45996
G1 X112.736 Y107.11 E8.47951
G1 X113.275 Y106.75 E8.50107
G1 X113.779 Y106.448 E8.52061
G1 X114.349 Y106.143 E8.54211
G1 X114.886 Y105.889 E8.56187
G1 X115.504 Y105.634 E8.5841
G1 X116.06 Y105.437 E8.60372
G1 X116.663 Y105.255 E8.62467
G1 X117.231 Y105.113 E8.64414
G1 X117.858 Y104.988 E8.66541
G1 X118.441 Y104.901 E8.68501
G1 X119.089 Y104.837 E8.70667
G1 X119.675 Y104.808 E8.72619
G1 X120.334 Y104.808 E8.7481
G1 X120.928 Y104.838 E8.76789
G1 X121.572 Y104.903 E8.78941
G1 X122.153 Y104.99 E8.80895
G1 X122.793 Y105.118 E8.83066
G1 X123.363 Y105.262 E8.85022
G1 X123.976 Y105.449 E8.87153
G1 X124.536 Y105.65 E8.89132
G1 X125.135 Y105.899 E8.9129
G1 X125.662 Y106.149 E8.9323
G1 X126.23 Y106.454 E8.95374
G1 X126.733 Y106.756 E8.97325
G1 X127.267 Y107.113 E8.99462
G1 X127.743 Y107.466 E9.01433
G1 X128.252 Y107.883 E9.03621
G1 X128.681 Y108.273 E9.0555
G1 X129.127 Y108.72 E9.0765
G1 X129.523 Y109.156 E9.09609
G1 X129.932 Y109.653 E9.1175
G1 X130.284 Y110.126 E9.13711
G1 X130.659 Y110.688 E9.15958
G1 X130.961 Y111.195 E9.17921
G1 X131.256 Y111.748 E9.20005
G1 X131.507 Y112.278 E9.21956
G1 X131.755 Y112.876 E9.24109
G1 X131.955 Y113.434 E9.26081
G1 X132.145 Y114.06 E9.28256
G1 X132.287 Y114.628 E9.30204
G1 X132.411 Y115.253 E9.32323
G1 X132.498 Y115.835 E9.3428
G1 X132.563 Y116.491 E9.36473
G1 X132.592 Y117.089 E9.38464
G1 X132.591 Y117.746 E9.40649
G1 X132.561 Y118.333 E9.42604
G1 X132.497 Y118.978 E9.4476
G1 X132.409 Y119.563 E9.46728
G1 X132.28 Y120.2 E9.48889
G1 X132.136 Y120.769 E9.50841
G1 X131.956 Y121.363 E9.52906
G1 X131.761 Y121.911 E9.5484
G1 X131.505 Y122.528 E9.57062
G1 X131.252 Y123.061 E9.59025
G1 X130.955 Y123.617 E9.61121
G1 X130.655 Y124.119 E9.63066
G1 X130.284 Y124.674 E9.65287
G1 X129.926 Y125.155 E9.67281
G1 X129.516 Y125.653 E9.69426
G1 X129.127 Y126.081 E9.7135
G1 X128.674 Y126.533 E9.73478
G1 X128.238 Y126.928 E9.75435
G1 X127.735 Y127.341 E9.776
G1 X127.257 Y127.695 E9.79578
G1 X126.72 Y128.053 E9.81725
G1 X126.214 Y128.356 E9.83686
G1 X125.657 Y128.655 E9.85789
G1 X125.129 Y128.906 E9.87734
G1 X124.503 Y129.165 E9.89987
G1 X123.948 Y129.362 E9.91946
G1 X123.349 Y129.543 E9.94027
G1 X122.78 Y129.686 E9.95978
G1 X122.133 Y129.815 E9.98172
G1 X121.549 Y129.901 E10.00136
G1 X120.907 Y129.963 E10.02281
G1 X120.31 Y129.992 E10.04269
G1 X119.659 Y129.992 E10.06434
G1 X119.082 Y129.963 E10.08356
G1 X118.453 Y129.901 E10.10458
G1 X117.868 Y129.815 E10.12425
G1 X117.217 Y129.685 E10.14633
G1 X116.645 Y129.541 E10.16594
G1 X116.032 Y129.355 E10.18725
G1 X115.476 Y129.156 E10.20689
G1 X114.879 Y128.909 E10.22838
G1 X114.348 Y128.658 E10.24792
G1 X113.775 Y128.351 E10.26954
G1 X113.273 Y128.05 E10.289
G1 X112.73 Y127.687 E10.31073
G1 X112.251 Y127.331 E10.33058
G1 X111.753 Y126.922 E10.35201
G1 X111.321 Y126.53 E10.37141
G1 X110.865 Y126.073 E10.39289
G1 X110.47 Y125.637 E10.41245
G1 X110.061 Y125.139 E10.43389
G1 X109.71 Y124.666 E10.45348
G1 X109.349 Y124.125 E10.47511
G1 X109.047 Y123.621 E10.49465
G1 X108.743 Y123.054 E10.51605
G1 X108.491 Y122.522 E10.53563
G1 X108.236 Y121.903 E10.5579
G1 X108.036 Y121.339 E10.5778
G1 X107.855 Y120.742 E10.59855
G1 X107.714 Y120.181 E10.61779
G1 X107.585 Y119.532 E10.6398
G1 X107.499 Y118.947 E10.65946
G1 X107.437 Y118.308 E10.68082
G1 X107.408 Y117.712 E10.70066
G1 X107.409 Y117.054 E10.72255
G1 X107.439 Y116.467 E10.7421
G1 X107.502 Y115.832 E10.76332
G1 X107.589 Y115.248 E10.78296
G1 X107.715 Y114.617 E10.80436
G1 X107.855 Y114.058 E10.82353
G1 X108.045 Y113.432 E10.84529
G1 X108.247 Y112.869 E10.86518
